src/build/icons/LineIcons/pause.svg

<svg width="38" height="38" version="1.1" viewBox="-3 -1 34 34" xmlns="http://www.w3.org/2000/svg">
 <g fill="none" fill-rule="evenodd">
  <g transform="translate(-466,-567)" fill="#f00">
   <path d="m476 594c0 0.553-0.447 1-1 1h-2c-0.553 0-1-0.447-1-1v-22c0-0.552 0.447-1 1-1h2c0.553 0 1 0.448 1 1zm0-25h-4c-1.104 0-2 0.896-2 2v24c0 1.104 0.896 2 2 2h4c1.104 0 2-0.896 2-2v-24c0-1.104-0.896-2-2-2zm12 25c0 0.553-0.447 1-1 1h-2c-0.553 0-1-0.447-1-1v-22c0-0.552 0.447-1 1-1h2c0.553 0 1 0.448 1 1zm0-25h-4c-1.104 0-2 0.896-2 2v24c0 1.104 0.896 2 2 2h4c1.104 0 2-0.896 2-2v-24c0-1.104-0.896-2-2-2z"/>
  </g>
 </g>
</svg>

<svg width="28px" height="36px" viewBox="0 0 28 36" version="1.1" xmlns="http://www.w3.org/2000/svg" xmlns:xlink="http://www.w3.org/1999/xlink">
    <defs>
        <filter x="-1.7%" y="-0.9%" width="103.4%" height="101.8%" filterUnits="objectBoundingBox" id="filter-1">
            <feOffset dx="0" dy="2" in="SourceAlpha" result="shadowOffsetOuter1"></feOffset>
            <feGaussianBlur stdDeviation="2" in="shadowOffsetOuter1" result="shadowBlurOuter1"></feGaussianBlur>
            <feColorMatrix values="0 0 0 0 0   0 0 0 0 0   0 0 0 0 0  0 0 0 0.5 0" type="matrix" in="shadowBlurOuter1" result="shadowMatrixOuter1"></feColorMatrix>
            <feMerge>
                <feMergeNode in="shadowMatrixOuter1"></feMergeNode>
                <feMergeNode in="SourceGraphic"></feMergeNode>
            </feMerge>
        </filter>
    </defs>
    <g id="Page-1" stroke="none" stroke-width="1" fill="none" fill-rule="evenodd">
        <g id="Icon-Set" filter="url(#filter-1)" transform="translate(-466.000000, -567.000000)" fill="#FFFFFE">
            <path d="M476,594 C476,594.553 475.553,595 475,595 L473,595 C472.447,595 472,594.553 472,594 L472,572 C472,571.448 472.447,571 473,571 L475,571 C475.553,571 476,571.448 476,572 L476,594 L476,594 Z M476,569 L472,569 C470.896,569 470,569.896 470,571 L470,595 C470,596.104 470.896,597 472,597 L476,597 C477.104,597 478,596.104 478,595 L478,571 C478,569.896 477.104,569 476,569 L476,569 Z M488,594 C488,594.553 487.553,595 487,595 L485,595 C484.447,595 484,594.553 484,594 L484,572 C484,571.448 484.447,571 485,571 L487,571 C487.553,571 488,571.448 488,572 L488,594 L488,594 Z M488,569 L484,569 C482.896,569 482,569.896 482,571 L482,595 C482,596.104 482.896,597 484,597 L488,597 C489.104,597 490,596.104 490,595 L490,571 C490,569.896 489.104,569 488,569 L488,569 Z" id="Fill-125"></path>
        </g>
    </g>
</svg>
